X:44
T:O'Kee also #45
Z:id:hn-slide-44
M:6/8
K:D
D2D D2D|G2B GBA|B2A G2B|cBA B2


*****************************


19500 0 0.67129976 

<starions
|:G2A B2A|B2A B2A|B2A B2A|B2A BAB|c2A B2A|G3 G2A:|
|:e2a a2g|e2e e2f|e2e e2f|e2e e2f|e2e e2f|e2


*****************************


19600 0 1.1418142 

<start>
